packages/icons/src/bazzarpay-logo.svg

<svg width="24" height="24" viewBox="0 0 24 24" fill="none" xmlns="http://www.w3.org/2000/svg">
<path d="M23.1111 14C23.3469 14 23.5729 13.9042 23.7396 13.7337C23.9064 13.5632 24 13.332 24 13.0909C24 12.8498 23.9064 12.6186 23.7396 12.4481C23.5729 12.2776 23.3469 12.1818 23.1111 12.1818H21.1556V8.90909C21.1556 8.66798 21.0619 8.43675 20.8952 8.26627C20.7285 8.09578 20.5024 8 20.2667 8C20.0309 8 19.8048 8.09578 19.6381 8.26627C19.4714 8.43675 19.3778 8.66798 19.3778 8.90909V12.9091C19.3778 13.5116 19.8553 14 20.4444 14H23.1111Z" fill="black"/>
<path d="M2.2208 14.9091H5.86667V13.0909H2.22222C2.10435 13.0909 1.9913 13.043 1.90795 12.9578C1.8246 12.8725 1.77778 12.7569 1.77778 12.6364C1.77778 12.5158 1.8246 12.4002 1.90795 12.315C1.9913 12.2297 2.10435 12.1818 2.22222 12.1818H8.7111C9.30021 12.1818 9.77777 11.6934 9.77777 11.0909V8.90909C9.77777 8.66798 9.68413 8.43675 9.51741 8.26627C9.35074 8.09578 9.12463 8 8.88887 8C8.65316 8 8.42704 8.09578 8.26037 8.26627C8.09366 8.43675 8.00002 8.66798 8.00002 8.90909V10.3636H2.22222C1.63285 10.3636 1.06762 10.6031 0.650876 11.0293C0.234127 11.4555 0 12.0336 0 12.6364C0 13.2392 0.234127 13.8172 0.650876 14.2434C1.06762 14.6696 1.63285 14.9091 2.22222 14.9091H2.2208Z" fill="black"/>
<path d="M15.4667 8.90909C15.4667 8.66798 15.373 8.43675 15.2063 8.26627C15.0396 8.09578 14.8135 8 14.5778 8C14.342 8 14.1159 8.09578 13.9492 8.26627C13.7826 8.43675 13.6889 8.66798 13.6889 8.90909V14H15.4667V8.90909Z" fill="black"/>
<path d="M17.4222 16C17.658 16 17.8841 15.9042 18.0507 15.7337C18.2175 15.5632 18.3111 15.332 18.3111 15.0909V11.7542C18.3111 11.7422 18.3111 11.7302 18.3111 11.7178V10.3636H16.5333V11.7178C16.5333 11.7302 16.5333 11.7422 16.5333 11.7542V15.0909C16.5333 15.332 16.627 15.5632 16.7937 15.7337C16.9604 15.9042 17.1865 16 17.4222 16Z" fill="black"/>
<path d="M12.6222 15.0909V11.7542C12.6222 11.7422 12.6222 11.7302 12.6222 11.7178V10.3636H10.8444V11.7178C10.8444 11.7302 10.8444 11.7422 10.8444 11.7542V15.0909C10.8444 15.332 10.9381 15.5632 11.1048 15.7337C11.2715 15.9042 11.4976 16 11.7333 16C11.9691 16 12.1952 15.9042 12.3619 15.7337C12.5286 15.5632 12.6222 15.332 12.6222 15.0909Z" fill="black"/>
<path d="M17.402 9.47055C17.7947 9.47055 18.1131 9.14493 18.1131 8.74327C18.1131 8.34161 17.7947 8.016 17.402 8.016C17.0092 8.016 16.6908 8.34161 16.6908 8.74327C16.6908 9.14493 17.0092 9.47055 17.402 9.47055Z" fill="black"/>
<path d="M20.2667 16C20.6594 16 20.9778 15.6744 20.9778 15.2728C20.9778 14.8711 20.6594 14.5455 20.2667 14.5455C19.8739 14.5455 19.5555 14.8711 19.5555 15.2728C19.5555 15.6744 19.8739 16 20.2667 16Z" fill="black"/>
<path d="M6.93334 13.0909V14.5455H8.35556V15.2728C8.35556 15.6744 8.67394 16 9.06669 16C9.45939 16 9.77777 15.6744 9.77777 15.2728V13.8182C9.77777 13.4165 9.45939 13.0909 9.06669 13.0909H6.93334Z" fill="black"/>
</svg>

<svg xmlns="http://www.w3.org/2000/svg" width="24" height="24" fill="none" viewBox="0 0 24 24">
  <path fill="#000" d="M23.111 14a.879.879 0 0 0 .629-.266.92.92 0 0 0 0-1.286.879.879 0 0 0-.629-.266h-1.955V8.909a.92.92 0 0 0-.26-.643.879.879 0 0 0-1.258 0 .92.92 0 0 0-.26.643v4c0 .603.477 1.091 1.066 1.091h2.667Zm-20.891.91h3.647v-1.82H2.222a.44.44 0 0 1-.314-.132.46.46 0 0 1 0-.643.44.44 0 0 1 .314-.133h6.49a1.08 1.08 0 0 0 1.066-1.091V8.909a.92.92 0 0 0-.26-.643.879.879 0 0 0-1.258 0A.92.92 0 0 0 8 8.91v1.455H2.222a2.2 2.2 0 0 0-1.571.665A2.3 2.3 0 0 0 0 12.636a2.3 2.3 0 0 0 .65 1.607c.418.427.983.666 1.572.666h-.001Zm13.247-6a.92.92 0 0 0-.26-.644.879.879 0 0 0-1.258 0 .92.92 0 0 0-.26.643V14h1.778V8.91ZM17.422 16a.879.879 0 0 0 .629-.266.92.92 0 0 0 .26-.643v-4.727h-1.778v4.727a.92.92 0 0 0 .26.643c.167.17.393.266.63.266Zm-4.8-.91v-4.726h-1.778v4.727a.92.92 0 0 0 .26.643.879.879 0 0 0 1.258 0 .92.92 0 0 0 .26-.643Zm4.78-5.62a.72.72 0 0 0 .711-.727.72.72 0 0 0-.711-.727.72.72 0 0 0-.711.727.72.72 0 0 0 .711.728ZM20.267 16a.72.72 0 0 0 .71-.727.72.72 0 0 0-.71-.727.72.72 0 0 0-.712.727.72.72 0 0 0 .712.727Z"/>
  <path fill="#000" d="M6.933 13.09v1.456h1.423v.727a.72.72 0 0 0 .71.727.72.72 0 0 0 .712-.727v-1.455a.72.72 0 0 0-.711-.727H6.933Z"/>
</svg>
